X: 6286
T: Caroline O'Neill's
R: hornpipe
M: 4/4
K: Gmajor
Bc|~d2 gd BGAB|~c2ec AGFA|DGBG FGAF|GBdf gdBc|
de~d2 BGAB|cBAG FGAD|GBdg fdcA|BGGF G2:|
|:Bd|gfef gd^cd|~e2 ce dBGd|~e2ce dGBd|ga ge d2df|
gfed cBAG|FGAB cdef|gage dcBA|BGGF G2:|
|:Bc|dBGB AFDC|B,CDE FGAB|~c2dB c3G|FDAB cedc|
BGAF GDEC|B,CDE FGAc|~d2eg fdcA|BGGF G2:|
|:Bd|~g2dg ~e2ce|dedc BGAB|cBcA dcBd|gage d2 ef|
gbaf gedB|cedB cBAB|dfeg fdcA|BGGF G2:|

